!!!!SEGMENT: pl-kk--kk-i-195--002_anonim--iste-confessor.krn
!!!cenid: 17xx:2611
!!!COM: Anonim
!!!COM-rismID: pe30004985
!!!CDT:
!!!CNT:
!!!OTL: Iste confessor
!!!PDT:
!!!AGN: Sacred; Hymns
!!!YEC: Copyright 2022 Narodowy Instytut Fryderyka Chopina (https://polishscores.org)
!!!YEM: License CC-BY-4.0 (https://creativecommons.org/licenses/by/4.0)
!!!SMS-siglum: PL-Kk
!!!SMS-shelfmark: Kk.I.195
!!!SMS-variant:
!!!SMS-altvar:
!!!SMS-shelfwork: 002 W
!!!NIFC-rismSourceID: 1001151874
!!!NIFC-rismChildID: 1001151881
!!!NIFC-islandoraID: pl-kk:4083
!!!URL-pdf-islandora: https://repozytorium.nifc.pl/islandora/object/pl-kk:4083/datastream/PDF/view
!!!URL-scan: https://polish.musicsources.pl/pl/lokalizacje/galeria/rekopisy/5823/4 @EN{Scan on Polish Music Sources Website} @PL{Skany w portalu Dziedzictwo Muzyki Polskiej w otwartym dostępie}
!!!IIIF:
!!!ONB-nifc: UWAGA: Utwory w źródle: 1. Jesu corona celsior, 2. Iste confessor
!!!OMD:
!!!AIN: 1 alto 1 bass 1 canto 1 tenor
!!!key: C:ion
**kern	**fba	**text	**text	**text	**kern	**text	**text	**text	**kern	**text	**text	**text	**kern	**text	**text	**text
*part4	*part4	*part4	*part4	*part4	*part3	*part3	*part3	*part3	*part2	*part2	*part2	*part2	*part1	*part1	*part1	*part1
*staff4	*staff4	*staff4	*staff4	*staff4	*staff3	*staff3	*staff3	*staff3	*staff2	*staff2	*staff2	*staff2	*staff1	*staff1	*staff1	*staff1
*I"Baſso	*	*	*	*	*I"Tenore	*	*	*	*I"Alto	*	*	*	*I"Canto	*	*	*
*I'B	*	*	*	*	*I'T	*	*	*	*I'A	*	*	*	*I'S	*	*	*
*Ibass	*	*	*	*	*Itenor	*	*	*	*Ialto	*	*	*	*Icanto	*	*	*
*ICvox	*	*	*	*	*ICvox	*	*	*	*ICvox	*	*	*	*ICvox	*	*	*
*clefF4	*	*	*	*	*clefC4	*	*	*	*clefC3	*	*	*	*clefC1	*	*	*
*k[]	*	*	*	*	*k[]	*	*	*	*k[]	*	*	*	*k[]	*	*	*
*C:ion	*	*	*	*	*C:ion	*	*	*	*C:ion	*	*	*	*C:ion	*	*	*
*M4/4	*	*	*	*	*M4/4	*	*	*	*M4/4	*	*	*	*M4/4	*	*	*
*met(c)	*	*	*	*	*met(c)	*	*	*	*met(c)	*	*	*	*met(c)	*	*	*
=1	=1	=1	=1	=1	=1	=1	=1	=1	=1	=1	=1	=1	=1	=1	=1	=1
8r	.	.	.	.	8r	.	.	.	8r	.	.	.	8r	.	.	.
8C/	.	1 Is-	3 Cu-	5 Sit	8c\	1 Is-	3 Cu-	5 Sit	8g\	1 Is-	3 Cu-	5 Sit	8ee\	1 Is-	3 Cu-	5 Sit
8C/	.	-te	-ius	Sa-	8c\	-te	-ius	sa-	8g\	-te	-ius	sa-	8ee\	-te	-ius	sa-
8C/	.	Con-	ob	-lus	8c\	con-	ob	-l(us)	8g\	con-	ob	-lus	8ee\	con-	ob	-lus
4F\	.	-feſ-	praes-	il-	4A\	-feſ-	praes-	il-	4a\	-fes-	praes-	il-	4ff\	-fes-	praes-	il-
4C/	.	-sor	-tans	-li	4c\	-sor	-tans	-li	4g\	-sor	-tans	-li	4ee\	-sor	-tans	-li
=2	=2	=2	=2	=2	=2	=2	=2	=2	=2	=2	=2	=2	=2	=2	=2	=2
!	!	!	!	!	!	!	!	!	!LO:TX:a:t=P:problem=# above	!	!	!	!	!	!	!
8.D/	.	Do-	me-	de-	8.A\	Do-	me-	de-	8.f#X\	D(o)-	me-	de-	8.dd\	D(o)-	me-	de-
16C/	.	-mi-	-ri-	-cus	16A\	-mi-	-ri-	-c(us)	16f#\	-(mi)-	-ri-	-cus	16dd\	-(mi)-	-ri-	-cus
8BB/	.	-ni,	-tum	at-	8B\	-ni	-tum	at-	8g\	-ni	-tum	at-	8dd\	-ni	-tum	at-
8C/	.	co-	fre-	-q(uae)	8G\	co-	fre-	-q(uae)	8g\	co-	fre-	-q(uae)	8ee\	co-	fre-	-q(uae)
2AA/	76	-len-	-quen-	Vir-	2A/	-len-	-quen-	vir-	4g\	-len-	-quen-	vir-	2ccn\	-len-	-quen-	vir-
!	!	!	!	!	!	!	!	!	!LO:TX:a:t=P:problem=# above	!	!	!	!	!	!	!
.	.	.	.	.	.	.	.	.	4f#X\	.	.	.	.	.	.	.
=3	=3	=3	=3	=3	=3	=3	=3	=3	=3	=3	=3	=3	=3	=3	=3	=3
8GG/	.	-tes	-ter	-tus,	8D,/	-tes	-ter	-tus	8g,\	-tes	-ter	-tus	8dd,\	-tes	-ter	-tus
!	!	!	!	!	!LO:TX:a:t=P:problem=♮ above	!	!	!	!	!	!	!	!	!	!	!
8GG/	.	quem	ae-	qui	8Bn\	quem	ae-	qui	8g\	Quem	ae-	qui	8dd\	Quem	ae-	qui
8GG/	.	pi-	-gra	Su-	8B\	pi-	-gra	su-	8g\	pi-	-gra	su-	8dd\	pi-	-gra	su-
8GG/	.	-e	q(uae)	-per	8G\	-e	quae	-per	8d\	-e	quae	-per	8b\	-e	quae	-per
4C/	.	lau-	paſ-	Cae-	8G/L	lau-	paſ-	cae-	(8e\L	lau-	paſ-	cae-	4cc\	lau-	paſ-	cae-
.	.	.	.	.	8A/J	.	.	.	8f\J)	.	.	.	.	.	.	.
4GG/	.	-dant	-sim	-li	4B/	-dant	-sim	-li	4g\	-dant	-sim	-li	4dd\	-dant	-sim	-li
=4	=4	=4	=4	=4	=4	=4	=4	=4	=4	=4	=4	=4	=4	=4	=4	=4
8.C/	.	po-	ia-	so-	8.c\	po-	ia-	so-	8.e\	po-	ia-	so-	8.ee\	po-	ia-	so-
!	!	!	!	!	!LO:TX:a:t=P:problem=♮ above	!	!	!	!	!	!	!	!	!	!	!
16D/	.	-pu-	-cu-	-li-	16Bn\	-pu-	-cu-	-li-	16f\	-pu-	-cu-	-li-	16dd\	-pu-	-cu-	-li-
8E\	.	-li	-e-	-o	8B\	-li	-e-	-o	8g\	-li	-e-	-o	8cc\	-li	-e-	-o
8BB/	.	per	-rê	co-	8B\	per	-ra	co-	8g\	per	-ra	co-	8dd\	per	-ra	co-
4C\	6 5	or-	mem-	-rus-	4.A/	or-	mem-	-ruſ-	4g\	or-	mem-	-ruſ-	4ee\	or-	mem-	-ruſ-
!	!	!	!	!	!	!	!	!	!LO:TX:a:t=P:problem=# above	!	!	!	!	!	!	!
4D\	.	.	-bra	-cans	.	.	.	.	4f#X\	.	-bra	-cans	4dd\	.	-bra	-cans
.	.	.	.	.	8A/	.	-bra	-cans	.	.	.	.	.	.	.	.
=5	=5	=5	=5	=5	=5	=5	=5	=5	=5	=5	=5	=5	=5	=5	=5	=5
4.GG/	.	-bem	Vi-	to-	4.B,\	-bem	vi-	to-	4.g,\	-bem	vi-	to-	4.dd\	-bem	vi-	to-
8E\	.	.	-ri-	-tî-	8c\	.	-ri-	-ti-	8g\	.	-ri-	-ti-	8ee\	.	-ri-	-ti-
4F\	.	hac	-bus	.	4A\	hac	-bus	.	4a\	hac	-bus	.	4cc\	hac	-bus	.
4D\	.	di-	mor-	-us	4A\	di-	mor-	-(us)	4f\	di-	mor-	-us	4dd\	di-	mor-	-us
=6	=6	=6	=6	=6	=6	=6	=6	=6	=6	=6	=6	=6	=6	=6	=6	=6
!	!	!	!	!	!	!	!	!	!	!	!	!	!LO:TX:a:t=P:problem=# above	!	!	!
8.AA/	.	-e	-bi	mun-	8.A\	-e	-bi	mun-	8.e\	-e	-bi	mun-	8.cc#X\	-e	-bi	mun-
16BB/	.	lae-	do-	-di	16A\	lae-	do-	-di	16e\	lae-	do-	-di	16dd\	lae-	do-	-di
8C#X/	.	-tus	-mi-	se-	8A\	-tus	-mi-	ſe-	8e\	-tus	-mi-	ſe-	8ee\	-tus	-mi-	ſe-
8C#/	.	me-	-tis	-ri-	8A\	me-	-tis	-ri-	8e\	me-	-tis	-ri-	8ee\	me-	-tis	-ri-
4D\	.	-ru-	Sa-	-em	4A\	-ru-	sa-	-em	4f\	-ru-	sa-	-em	4dd\	-ru-	sa-	-em
4BB-X/	.	-it	-lu-	gu-	4B-X\	-it	-lu-	gu-	4f\	-it	-lu-	gu-	4dd\	-it	-lu-	gu-
=7	=7	=7	=7	=7	=7	=7	=7	=7	=7	=7	=7	=7	=7	=7	=7	=7
*	*	*	*	*	*	*	*	*	*2\right	*	*	*	*	*	*	*
4GG/	.	su-	-ti	-ber-	4B\	su-	-ti	-ber-	2e\	su-	-ti	-ber-	4.dd\	be-	-ti	-ber-
4AA/	.	-pre-	.	-nat	4A\	-pre-	.	.	.	.	.	.	.	.	.	.
.	.	.	.	.	.	.	.	.	.	.	.	.	8cc#X\	-a-	.	-nat
8D,\	.	-mos	.	.	8A,\	-mos	.	.	2f\	-pre-	.	-nat	4dd,\	-tas	.	.
(8D\	.	lau-	.	Tri-	(8F/	lau-	.	.	.	.	.	.	.	.	.	.
8E\L	.	.	.	.	8G/	.	.	Tri-	.	.	.	.	(8cc#\	scan-	.	Tri-
8F\J)	.	.	.	.	8A/)	.	.	.	.	.	.	.	8cc#\)	.	.	.
=8	=8	=8	=8	=8	=8	=8	=8	=8	=8	=8	=8	=8	=8	=8	=8	=8
!	!	!	!	!	!LO:TX:a:t=P:problem=♮ above	!	!	!	!	!	!	!	!	!	!	!
4G\	.	.	.	-nus	4Bn\	.	.	.	4d\	-mos	.	.	4b\	.	.	.
4Fn\	.	.	.	.	4A\	.	.	.	8e\	lau-	.	Tri-	4a\	.	.	.
.	.	.	.	.	.	.	.	.	8f\	.	.	.	.	.	.	.
4E\	.	.	.	.	4G/	.	.	.	4g\	.	.	.	4g\	.	.	.
4D\	56	.	re-	.	4F/	.	re-	.	4f\	.	.	.	8a\L	.	re-	.
.	.	.	.	.	.	.	.	.	.	.	.	.	8b\J	.	.	.
=9	=9	=9	=9	=9	=9	=9	=9	=9	=9	=9	=9	=9	=9	=9	=9	=9
4C/	.	.	.	.	4E/	.	.	.	4e\	.	.	.	4cc\	.	.	.
8D/L	6	.	.	.	8F/L	.	.	.	4d\	.	re-	.	4b\	.	.	.
8E/J	.	.	.	.	8G/J	.	.	.	.	.	.	.	.	.	.	.
4F\	.	.	.	.	4A/	.	.	.	4c\	.	.	.	4a\	.	.	.
4E\	56	.	.	.	4G/	.	.	.	8d\	.	.	.	8b\L	.	.	.
.	.	.	.	.	.	.	.	.	8e\	.	.	.	8cc\J	.	.	.
=10	=10	=10	=10	=10	=10	=10	=10	=10	=10	=10	=10	=10	=10	=10	=10	=10
4D\	.	.	.	.	4F/	.	.	.	4f\	.	-sti-	.	4dd\	.	-sti-	.
8E\	6	.	.	.	8G/	.	.	.	8e\	.	-tu-	.	8cc\	.	-tu-	.
8E\	.	-dis	-sti-	.	8G/	-das	-sti-	-nus	8e\	.	-un-	-nus	8cc\	-de-	-un-	-nus
2F\	6 5	ho-	-tu-	et	2A/	ho-	-tu-	et	4.d\	.	-tur	.	4a\	-re	-tur	.
*	*	*	*	*	*	*	*	*	*	*	*	*	*	*	*ij	*
.	.	.	.	.	.	.	.	.	.	.	.	.	4dd\	scan-	re-	Tri-
*	*	*	*	*	*	*	*	*	*	*	*ij	*	*	*	*	*
.	.	.	.	.	.	.	.	.	8d\	.	re-	Tri-	.	.	.	.
=11	=11	=11	=11	=11	=11	=11	=11	=11	=11	=11	=11	=11	=11	=11	=11	=11
1G	.	-no-	-un-	U-	1G	-no-	-un-	U-	4d\	-dis	-sti-	-n(us)	4b\	-de-	-sti-	-n(us)
.	.	.	.	.	.	.	.	.	4e\	ho-	-tu-	et	2cc\	-re	-tu-	et
.	.	.	.	.	.	.	.	.	2d\	-no-	-un-	U-	.	.	.	.
.	.	.	.	.	.	.	.	.	.	.	.	.	4b\	se-	-un-	U-
=12-	=12-	=12	=12	=12	=12	=12	=12	=12	=12	=12	=12	=12	=12	=12	=12	=12
1C;<	.	-res.	-tur.	-nus.	1G;<	-res.	-tur.	-nus.	1e;<	-res	-tur	-nus.	1cc;<	-des	-tur	-nus
*	*	*	*	*	*	*	*	*	*	*	*Xij	*	*	*	*Xij	*
!LO:LB:g=original	!	!	!	!	!LO:LB:g=original	!	!	!	!LO:LB:g=original	!	!	!	!LO:LB:g=original	!	!	!
=13||	=13||	=13||	=13||	=13||	=13||	=13||	=13||	=13||	=13||	=13||	=13||	=13||	=13||	=13||	=13||	=13||
*M3/1	*	*	*	*	*M3/1	*	*	*	*M3/1	*	*	*	*M3/1	*	*	*
1C	.	2 Qui	4 Nos-	.	1c	2 Qui	4 Nos-	.	1e	2 Qui	4 Nos-	.	1cc	2 Qui	4 Nos-	.
1C	.	pi-	-ter	.	1G	pi-	-ter	.	1e	pi-	-ter	.	1dd	pi-	-ter	.
1BB	.	-us	hinc	.	1B	-(us)	hinc	.	1g	-(us)	hinc	.	1cc	-(us)	hinc	.
=14	=14	=14	=14	=14	=14	=14	=14	=14	=14	=14	=14	=14	=14	=14	=14	=14
0C	.	pru-	il-	.	0G	pru-	il-	.	0e	pru-	il-	.	0cc	pru-	il-	.
1AA	.	-dens	-li	.	1A	-dens	-li	.	1e	-dens	-li	.	1cc	-dens	-li	.
=15	=15	=15	=15	=15	=15	=15	=15	=15	=15	=15	=15	=15	=15	=15	=15	=15
1.GG	.	hu-	Cho-	.	1.B	hu-	cho-	.	1.e	hu-	cho-	.	1.b	hu-	cho-	.
*	*	*	*	*	*2\right	*	*	*	*	*	*	*	*	*	*	*
2GG/	.	-mi-	-rus	.	2B\	-mi-	-r(us)	.	2e\	-mi-	-r(us)	.	2b\	-mi-	-r(us)	.
1AA	.	.	ob-	.	1A	.	ob-	.	1e	.	ob-	.	1cc	.	ob-	.
=16	=16	=16	=16	=16	=16	=16	=16	=16	=16	=16	=16	=16	=16	=16	=16	=16
1E	.	-lis	-se-	.	1G#X	-lis	-se-	.	1e	-lis	-se-	.	1ee	-lis	-se-	.
0F	76	.	-quen-	.	0A	.	-quen-	.	1.e	.	-quen-	.	0a	.	-quen-	.
.	.	.	.	.	.	.	.	.	2d\	.	.	.	.	.	.	.
=17	=17	=17	=17	=17	=17	=17	=17	=17	=17	=17	=17	=17	=17	=17	=17	=17
0.E	.	pu-	-tem	.	0.G#X,	pu-	-tem	.	0.e	pu-	-tem	.	0.b	pu-	-tem	.
=18	=18	=18	=18	=18	=18	=18	=18	=18	=18	=18	=18	=18	=18	=18	=18	=18
1.C	.	-di-	con-	.	1.Gn	-di-	con-	.	1.e	-di-	con-	.	1.cc	-di-	con-	.
.	.	.	.	.	.	.	.	.	.	.	.	.	.	.	.	.
2BB	.	-cus	-ci-	.	2G/	-c(us)	-ci-	.	2e\	-c(us)	-ci-	.	2cc\	-c(us)	-ci-	.
1AA	.	so-	-nit	.	1A	so-	-nit	.	1a	so-	-nit	.	1cc	so-	-nit	.
=19	=19	=19	=19	=19	=19	=19	=19	=19	=19	=19	=19	=19	=19	=19	=19	=19
0E	.	-bri-	.	.	0B	-bri-	.	.	0g#X	-bri-	.	.	0ee	-bri-	.	.
1C	.	-am	.	.	1c	-am	.	.	1a	-am	.	.	1ee	-am	.	.
=20	=20	=20	=20	=20	=20	=20	=20	=20	=20	=20	=20	=20	=20	=20	=20	=20
1.D	.	du-	lau-	.	1.A	du-	lau-	.	1.f#X	du-	lau-	.	1.dd	du-	lau-	.
2C/	.	-xit	-dem	.	2A\	-xit	-dem	.	2f#\	-xit	-dem	.	2ee\	-xit	-dem	.
1BB	.	si-	.	.	1B	si-	.	.	1g#X	si-	.	.	1dd	si-	.	.
=21	=21	=21	=21	=21	=21	=21	=21	=21	=21	=21	=21	=21	=21	=21	=21	=21
1C	.	-ne	Ce-	.	1A	-ne	ce-	.	1a	-ne	ce-	.	1cc	-ne	ce-	.
*lig	*	*	*	*	*	*	*	*	*	*	*	*	*	*	*	*
1D	.	la-	-le-	.	0B	la-	-le-	.	1.a	la-	-le-	.	0b	la-	-le-	.
1E	.	.	.	.	.	.	.	.	.	.	.	.	.	.	.	.
.	.	.	.	.	.	.	.	.	2g\	.	.	.	.	.	.	.
*Xlig	*	*	*	*	*	*	*	*	*	*	*	*	*	*	*	*
=22	=22	=22	=22	=22	=22	=22	=22	=22	=22	=22	=22	=22	=22	=22	=22	=22
!	!	!	!	!	!	!	!	!	!	!	!	!	!LO:TX:a:t=P:problem=# above	!	!	!
0.AA	.	-be	-bres-	.	0.A,	-be	-bres-	.	0.a	-be	-bres-	.	0.cc#X,	-be	-bres-	.
=23	=23	=23	=23	=23	=23	=23	=23	=23	=23	=23	=23	=23	=23	=23	=23	=23
!	!	!	!	!	!	!	!	!	!	!	!	!	!LO:N:acc=-	!	!	!
1F	.	Vi-	-q(ue)	.	1A	vi-	-q(ue)	.	1a	vi-	-q(ue)	.	1ccn	vi-	-q(ue)	.
1D	.	.	pal-	.	1B	.	pal-	.	1f	.	pal-	.	1dd	.	pal-	.
1C	.	-tam,	-mas	.	1c	-tam,	-mas,	.	1e	-tam,	-mas	.	1ee	-tam,	-mas	.
=24	=24	=24	=24	=24	=24	=24	=24	=24	=24	=24	=24	=24	=24	=24	=24	=24
0GG	.	do-	Ut	.	0B	do-	ut	.	0d	do-	ut	.	0b	do-	ut	.
1GG	.	-nec	pi-	.	1B	-nec	pi-	.	1d	-nec	pi-	.	1b	-nec	pi-	.
=25	=25	=25	=25	=25	=25	=25	=25	=25	=25	=25	=25	=25	=25	=25	=25	=25
1.G	.	hu-	-is	.	1.G	hu-	-is	.	1.d	hu-	-is	.	1.b	hu-	-is	.
2F\	.	-ma-	e-	.	2G/	-ma-	e-	.	2d\	-ma-	e-	.	2b\	-ma-	e-	.
!	!	!	!	!	!	!	!	!	!	!	!	!	!LO:TX:a:t=P:problem=# above	!	!	!
1E	6\	-nos	-ius	.	1G	-nos	-i(us)	.	1e	-nos	-i(us)	.	1cc#X	-nos	-i(us)	.
=26	=26	=26	=26	=26	=26-	=26	=26	=26	=26	=26	=26	=26	=26	=26	=26	=26
1D	.	a-	pre-	.	1A	a-	pre-	.	1f	a-	pre-	.	1dd	a-	pre-	.
0AA	.	-ni-	-ci-	.	0A	-ni-	-ci-	.	0e	-ni-	-ci-	.	1.dd	-ni-	-ci-	.
!	!	!	!	!	!	!	!	!	!	!	!	!	!LO:TX:a:t=P:problem=# above	!	!	!
.	.	.	.	.	.	.	.	.	.	.	.	.	2cc#X\	-ma-	-bus	.
=27	=27	=27	=27	=27	=27	=27	=27	=27	=27	=27	=27	=27	=27	=27	=27	=27
1D	.	-ma-	-bus	.	1A,	-ma-	-bus	.	1f#X,	-ma-	-bus	.	1dd,	-vit	.	.
1D	.	-vit	.	.	1d	-vit	.	.	1f#	-vit	.	.	1ff	au-	ju-	.
1E	.	au-	iu-	.	2c\	au-	ju-	.	1g	au-	ju-	.	2een\	-rae	-ve-	.
.	.	.	.	.	2B\	.	.	.	.	.	.	.	2dd\	spi-	.	.
=28	=28	=28	=28	=28	=28	=28	=28	=28	=28	=28	=28	=28	=28	=28	=28	=28
1.F	.	-rae	-ve-	.	1.A	-rae	-ve-	.	1.a	-rae	-ve-	.	0cc	.	-mur	.
2F\	.	spi-	.	.	2A\	spi-	.	.	2g\	spi-	.	.	.	.	.	.
2E\	.	.	-mur	.	1B	.	-mur	.	2f\	.	-mur	.	1dd	.	.	.
2D\	.	.	.	.	.	.	.	.	2e\	.	.	.	.	.	.	.
=29	=29	=29	=29	=29	=29	=29	=29	=29	=29	=29	=29	=29	=29	=29	=29	=29
1.C	.	.	.	.	1.c	.	.	.	1.e	.	o-	.	0een	.	o-	.
2D/	.	.	o-	.	2c\	.	o-	.	2f\	.	.	.	.	.	.	.
2E\	.	.	.	.	2B\	.	.	.	2g\	.	.	.	2dd\	.	.	.
2F\	.	.	.	.	2A\	.	.	.	4f\	.	.	.	2cc\	.	.	.
.	.	.	.	.	.	.	.	.	4e\	.	.	.	.	.	.	.
=30	=30	=30	=30	=30	=30	=30	=30	=30	=30	=30	=30	=30	=30	=30	=30	=30
1.G	.	.	.	.	1.G	.	.	.	1.d	.	.	.	1.b	.	.	.
2F\	.	.	.	.	2G/	.	.	.	4e\	.	.	.	2b\	.	.	.
.	.	.	.	.	.	.	.	.	4f\	.	.	.	.	.	.	.
1E	.	.	.	.	1G	.	.	.	2g\	.	.	.	2cc\	.	.	.
.	.	.	.	.	.	.	.	.	2g\	.	.	.	2b\	.	.	.
=31	=31	=31	=31	=31	=31	=31	=31	=31	=31	=31	=31	=31	=31	=31	=31	=31
1.F	.	.	.	.	1.A	.	.	.	1f	.	.	.	1.a	.	.	.
.	.	.	.	.	.	.	.	.	1.f	.	-mne	.	.	.	.	.
2E\	.	.	-mne	.	2A/	.	-mne	.	.	.	.	.	4b\	.	-mne	.
.	.	.	.	.	.	.	.	.	.	.	.	.	4cc\	.	o-	.
1D	.	.	o-	.	1B	.	o-	.	.	.	.	.	1dd	-ri-	-mne	.
.	.	.	.	.	.	.	.	.	2f\	.	o-	.	.	.	.	.
=32	=32	=32	=32	=32	=32	=32	=32	=32	=32	=32	=32	=32	=32	=32	=32	=32
1C	.	-ri-	-mne	.	1c	-ri-	-mne	.	1g	-ri-	-mne	.	1ee	-tus	per	.
1GG	.	-tus	.	.	1c	-tus	per	.	1a	-tus	per	.	0dd	ar-	ae-	.
1GG	.	ar-	.	.	1B	ar-	ae-	.	1d	ar-	ae-	.	.	.	.	.
=33-	=33-	=33	=33	=33	=33-	=33	=33	=33	=33-	=33	=33	=33	=33-	=33	=33	=33
0.C	.	-tus,	.	.	0.c;<	-tus,	-vum	.	0.e	-tus,	-vum	.	0.cc;;	-tus,	-vum	.
==	==	==	==	==	==	==	==	==	==	==	==	==	==	==	==	==
*-	*-	*-	*-	*-	*-	*-	*-	*-	*-	*-	*-	*-	*-	*-	*-	*-
!!!system-decoration: [(s1,s2,s3,s4)]
!!!RDF**kern: < = below
!!!ENC: Andrzej Gręziak
!!!END: 2024-04-14
!!!EED: Marta Chmielewska
!!!EEV: 2024-05-29
